docs/img/icon1/mobile-logo-white.svg

<svg xmlns="http://www.w3.org/2000/svg" width="25" height="24" viewBox="0 0 25 24" fill="none">
<path d="M25 3.84529H21.447V23.0676H17.7547V3.84529H8.41533L5.98996 13.9361H10.3479V7.69057H14.0364V23.0676H10.3479V17.8263H5.05739L3.76264 23.0676H0L5.60098 0C12.0802 0 18.5207 0 25 0V3.84529Z" fill="#F5F6FF"/>
</svg>

<svg xmlns="http://www.w3.org/2000/svg" width="25" height="24" fill="none"><path d="M25 3.845h-3.553v19.223h-3.692V3.845h-9.34L5.99 13.936h4.358V7.691h3.688v15.377h-3.688v-5.242h-5.29l-1.295 5.242H0L5.601 0H25v3.845z" fill="#F5F6FF"/></svg>
